src/images_karasa_jaga_svg/cmd/32/extrusiondirectionfloater.svg

<svg height="32" viewBox="0 0 8.4666665 8.466667" width="32" xmlns="http://www.w3.org/2000/svg" xmlns:xlink="http://www.w3.org/1999/xlink"><linearGradient id="a"><stop offset="0" stop-color="#7c9bce"/><stop offset="1" stop-color="#7c9bce"/></linearGradient><linearGradient id="b"><stop offset="0" stop-color="#c4d2f2"/><stop offset="1" stop-color="#c7d5f4"/></linearGradient><linearGradient id="c" gradientUnits="userSpaceOnUse" x1="2.116667" x2="16.933332" y1="288.53333" y2="280.06665"><stop offset="0" stop-color="#f1f6fd"/><stop offset="1" stop-color="#d7e2fa"/></linearGradient><linearGradient id="d" gradientUnits="userSpaceOnUse" x1="16.933332" x2="27.516666" xlink:href="#b" y1="273.71664" y2="267.36667"/><linearGradient id="e" gradientUnits="userSpaceOnUse" x1="21.034374" x2="31.882292" xlink:href="#b" y1="280.16223" y2="280.16223"/><linearGradient id="f" gradientUnits="userSpaceOnUse" x1="16.933332" x2="27.516666" xlink:href="#a" y1="273.71664" y2="267.36667"/><linearGradient id="g" gradientUnits="userSpaceOnUse" x1="21.034374" x2="31.882292" xlink:href="#a" y1="280.16223" y2="280.16223"/><linearGradient id="h"><stop offset="0" stop-color="#0968ef"/><stop offset="1" stop-color="#aecffc"/></linearGradient><linearGradient id="i" gradientUnits="userSpaceOnUse" x1="26.458332" x2="48.947956" xlink:href="#h" y1="264.19165" y2="270.80627"/><linearGradient id="j" gradientUnits="userSpaceOnUse" x1="39.158333" x2="47.625" xlink:href="#h" y1="273.71664" y2="257.84164"/><linearGradient id="k" gradientUnits="userSpaceOnUse" x1="40.216663" x2="48.947956" xlink:href="#h" y1="276.89166" y2="270.80627"/><linearGradient id="l" gradientUnits="userSpaceOnUse" x1="39.952038" x2="48.947956" xlink:href="#h" y1="280.33127" y2="270.80627"/><linearGradient id="m" gradientUnits="userSpaceOnUse" x1="1.058334" x2="17.618136" xlink:href="#a" y1="288.844606" y2="279.381845"/><g transform="matrix(.25 0 0 .25 0 -65.78333)"><g fill-rule="evenodd"><path d="m21.166016 264.19336a1.0566635 1.0566635 0 0 0 -.513672.13281l-19.0488284 10.58399a1.0566635 1.0566635 0 0 0 .5136719 1.98046h19.0488285a1.0566635 1.0566635 0 0 0 .748046-.30859l10.583985-10.58398a1.0566635 1.0566635 0 0 0 -.748047-1.80469z" fill="url(#f)"/><path d="m2.1166666 275.83332 19.0499994-10.58333h10.583334l-10.583334 10.58333z" fill="url(#d)"/><path d="m31.71875 264.19141a1.0594456 1.0594456 0 0 0 -.71875.30859l-10.583984 10.58398a1.0594456 1.0594456 0 0 0 -.308594.75v19.04883a1.0594456 1.0594456 0 0 0 1.984375.51367l10.583984-19.04882a1.0594456 1.0594456 0 0 0 .132813-.51368v-10.58398a1.0594456 1.0594456 0 0 0 -1.089844-1.05859z" fill="url(#g)"/><path d="m21.166666 294.88332 10.583334-19.05v-10.58333l-10.583334 10.58333z" fill="url(#e)"/></g><rect fill="url(#m)" height="20.108322" rx="1.058333" ry="1.058341" width="20.108334" x="1.058333" y="275.83331"/><path d="m2.116667 276.89166h17.991667v17.991657h-17.991667z" fill="url(#c)"/><path d="m53.919922 17.919922-7.748047 4.304687v18.775391a2.8287075 2.8287075 0 0 0 4.828125 2l12-12a2.8287075 2.8287075 0 0 0 0-4zm-12.042969 6.691406-18.830078 10.462891c.38136.566655.813534 1.09869 1.296875 1.582031 2.004559 2.004559 4.821375 3.171875 7.65625 3.171875s5.651691-1.167316 7.65625-3.171875 3.171875-4.821375 3.171875-7.65625c0-1.509529-.339044-3.009293-.951172-4.388672zm-24.048828 13.361328-6.335937 3.519532 1.507812 1.507812a2.8287075 2.8287075 0 0 0 4.828125-2zm2.171875 5.199219a2.8287075 2.8287075 0 0 0 -2 4.828125l12 12a2.8287075 2.8287075 0 0 0 4 0l12-12a2.8287075 2.8287075 0 0 0 -2-4.828125z" fill="#fff" fill-opacity=".669118" fill-rule="evenodd" transform="matrix(.26458333 0 0 .26458333 0 263.13332)"/><g fill="url(#i)" transform="translate(-32.808332 .000002)"><g fill="url(#i)"><path d="m-6.6769683 272.35702-7.8846607.45137 3.616751-5.91299z" fill="url(#i)" transform="matrix(.80273047 .03185404 -.0459535 .5564365 62.325563 114.97162)"/><path d="m44.449999 275.30423h-6.35l3.174999 3.175z" fill="url(#k)"/></g><g fill="url(#i)" transform="matrix(0 1 -1 0 312.081279 229.531281)"><path d="m-6.6769683 272.35702-7.8846607.45137 3.616751-5.91299z" fill="url(#i)" transform="matrix(.80273047 .03185404 -.0459535 .5564365 62.325563 114.97162)"/><path d="m44.449999 275.30423h-6.35l3.174999 3.175z" fill="url(#l)"/></g><circle cx="41.275002" cy="270.80627" fill="url(#j)" r="2.116667"/></g></g></svg>

<?xml version="1.0" encoding="UTF-8" standalone="no"?>
<!-- Created with Inkscape (http://www.inkscape.org/) -->

<svg
   xmlns:dc="http://purl.org/dc/elements/1.1/"
   xmlns:cc="http://creativecommons.org/ns#"
   xmlns:rdf="http://www.w3.org/1999/02/22-rdf-syntax-ns#"
   xmlns:svg="http://www.w3.org/2000/svg"
   xmlns="http://www.w3.org/2000/svg"
   xmlns:xlink="http://www.w3.org/1999/xlink"
   xmlns:sodipodi="http://sodipodi.sourceforge.net/DTD/sodipodi-0.dtd"
   xmlns:inkscape="http://www.inkscape.org/namespaces/inkscape"
   width="128"
   height="128"
   viewBox="0 0 33.866666 33.866668"
   version="1.1"
   id="svg8"
   inkscape:version="0.92.3 (unknown)"
   sodipodi:docname="extrusiondirectionfloater.svg"
   inkscape:export-filename="/home/rizmut/Dokumen/Rizmut/Github/libreoffice-style-karasa-jaga/build/images_karasa_jaga/cmd/32/extrusiondirectionfloater.png"
   inkscape:export-xdpi="24"
   inkscape:export-ydpi="24">
  <defs
     id="defs2">
    <linearGradient
       inkscape:collect="always"
       id="linearGradient841">
      <stop
         style="stop-color:#7c9bce;stop-opacity:1"
         offset="0"
         id="stop837" />
      <stop
         style="stop-color:#7c9bce;stop-opacity:1"
         offset="1"
         id="stop839" />
    </linearGradient>
    <linearGradient
       inkscape:collect="always"
       id="linearGradient938">
      <stop
         style="stop-color:#c4d2f2;stop-opacity:1;"
         offset="0"
         id="stop934" />
      <stop
         style="stop-color:#c7d5f4;stop-opacity:1"
         offset="1"
         id="stop936" />
    </linearGradient>
    <linearGradient
       inkscape:collect="always"
       id="linearGradient930">
      <stop
         style="stop-color:#f1f6fd;stop-opacity:1;"
         offset="0"
         id="stop926" />
      <stop
         style="stop-color:#d7e2fa;stop-opacity:1"
         offset="1"
         id="stop928" />
    </linearGradient>
    <linearGradient
       inkscape:collect="always"
       xlink:href="#linearGradient930"
       id="linearGradient932"
       x1="2.1166666"
       y1="288.53333"
       x2="16.933332"
       y2="280.06665"
       gradientUnits="userSpaceOnUse" />
    <linearGradient
       inkscape:collect="always"
       xlink:href="#linearGradient938"
       id="linearGradient940"
       x1="16.933332"
       y1="273.71664"
       x2="27.516666"
       y2="267.36667"
       gradientUnits="userSpaceOnUse" />
    <linearGradient
       inkscape:collect="always"
       xlink:href="#linearGradient938"
       id="linearGradient948"
       x1="21.034374"
       y1="280.16223"
       x2="31.882292"
       y2="280.16223"
       gradientUnits="userSpaceOnUse" />
    <linearGradient
       inkscape:collect="always"
       xlink:href="#linearGradient841"
       id="linearGradient849"
       gradientUnits="userSpaceOnUse"
       x1="16.933332"
       y1="273.71664"
       x2="27.516666"
       y2="267.36667" />
    <linearGradient
       inkscape:collect="always"
       xlink:href="#linearGradient841"
       id="linearGradient855"
       gradientUnits="userSpaceOnUse"
       x1="21.034374"
       y1="280.16223"
       x2="31.882292"
       y2="280.16223" />
    <linearGradient
       id="m"
       gradientTransform="matrix(0,0.46174514,0.80805411,0,-25.106709,262.35319)"
       gradientUnits="userSpaceOnUse"
       x1="95.126495"
       x2="64.143654"
       xlink:href="#g"
       y1="20.031025"
       y2="20.031025" />
    <linearGradient
       id="g">
      <stop
         offset="0"
         stop-color="#0968ef"
         id="stop1175" />
      <stop
         offset="1"
         stop-color="#aecffc"
         id="stop1177" />
    </linearGradient>
    <linearGradient
       inkscape:collect="always"
       xlink:href="#g"
       id="linearGradient1930"
       x1="26.458332"
       y1="264.19165"
       x2="48.947956"
       y2="270.80627"
       gradientUnits="userSpaceOnUse" />
    <linearGradient
       inkscape:collect="always"
       xlink:href="#g"
       id="linearGradient1932"
       gradientUnits="userSpaceOnUse"
       x1="39.158333"
       y1="273.71664"
       x2="47.625"
       y2="257.84164" />
    <linearGradient
       inkscape:collect="always"
       xlink:href="#g"
       id="linearGradient1934"
       gradientUnits="userSpaceOnUse"
       x1="40.216663"
       y1="276.89166"
       x2="48.947956"
       y2="270.80627" />
    <linearGradient
       inkscape:collect="always"
       xlink:href="#g"
       id="linearGradient1936"
       gradientUnits="userSpaceOnUse"
       x1="39.952038"
       y1="280.33127"
       x2="48.947956"
       y2="270.80627" />
    <linearGradient
       inkscape:collect="always"
       xlink:href="#linearGradient841"
       id="linearGradient853"
       gradientUnits="userSpaceOnUse"
       x1="2.1166666"
       y1="288.53333"
       x2="16.933332"
       y2="280.06665"
       gradientTransform="matrix(1.1176471,0,0,1.1176471,-1.307353,-33.633834)" />
  </defs>
  <sodipodi:namedview
     id="base"
     pagecolor="#ffffff"
     bordercolor="#666666"
     borderopacity="1.0"
     inkscape:pageopacity="0.0"
     inkscape:pageshadow="2"
     inkscape:zoom="2.8284272"
     inkscape:cx="-7.3694955"
     inkscape:cy="48.302537"
     inkscape:document-units="mm"
     inkscape:current-layer="layer1"
     showgrid="true"
     units="px"
     inkscape:lockguides="false"
     inkscape:window-width="1366"
     inkscape:window-height="706"
     inkscape:window-x="0"
     inkscape:window-y="0"
     inkscape:window-maximized="1"
     inkscape:snap-global="true">
    <inkscape:grid
       type="xygrid"
       id="grid815"
       spacingx="1.0583333"
       spacingy="1.0583333"
       empspacing="2" />
  </sodipodi:namedview>
  <metadata
     id="metadata5">
    <rdf:RDF>
      <cc:Work
         rdf:about="">
        <dc:format>image/svg+xml</dc:format>
        <dc:type
           rdf:resource="http://purl.org/dc/dcmitype/StillImage" />
        <dc:title />
      </cc:Work>
    </rdf:RDF>
  </metadata>
  <g
     inkscape:label="Layer 1"
     inkscape:groupmode="layer"
     id="layer1"
     transform="translate(0,-263.13332)">
    <path
       sodipodi:type="inkscape:offset"
       inkscape:radius="1.0565579"
       inkscape:original="M 21.166016 265.25 L 2.1171875 275.83398 L 21.166016 275.83398 L 31.75 265.25 L 21.166016 265.25 z "
       style="fill:url(#linearGradient849);fill-opacity:1;fill-rule:evenodd;stroke:none;stroke-width:0.5;stroke-linecap:butt;stroke-linejoin:miter;stroke-miterlimit:4;stroke-dasharray:none;stroke-opacity:0.95686275"
       id="path847"
       d="m 21.166016,264.19336 a 1.0566635,1.0566635 0 0 0 -0.513672,0.13281 L 1.6035156,274.91016 a 1.0566635,1.0566635 0 0 0 0.5136719,1.98046 H 21.166016 a 1.0566635,1.0566635 0 0 0 0.748046,-0.30859 L 32.498047,265.99805 A 1.0566635,1.0566635 0 0 0 31.75,264.19336 Z" />
    <path
       style="fill:url(#linearGradient940);fill-rule:evenodd;stroke:none;stroke-width:0.5;stroke-linecap:butt;stroke-linejoin:miter;stroke-opacity:0.95686275;fill-opacity:1;stroke-miterlimit:4;stroke-dasharray:none"
       d="M 2.1166666,275.83332 21.166666,265.24999 H 31.75 l -10.583334,10.58333 z"
       id="path920"
       inkscape:connector-curvature="0" />
    <path
       sodipodi:type="inkscape:offset"
       inkscape:radius="1.0593396"
       inkscape:original="M 31.75 265.25 L 21.166016 275.83398 L 21.166016 294.88281 L 31.75 275.83398 L 31.75 265.25 z "
       style="fill:url(#linearGradient855);fill-opacity:1;fill-rule:evenodd;stroke:none;stroke-width:0.5;stroke-linecap:butt;stroke-linejoin:miter;stroke-miterlimit:4;stroke-dasharray:none;stroke-opacity:0.95686275"
       id="path853"
       d="M 31.71875,264.19141 A 1.0594456,1.0594456 0 0 0 31,264.5 l -10.583984,10.58398 a 1.0594456,1.0594456 0 0 0 -0.308594,0.75 v 19.04883 a 1.0594456,1.0594456 0 0 0 1.984375,0.51367 l 10.583984,-19.04882 a 1.0594456,1.0594456 0 0 0 0.132813,-0.51368 V 265.25 a 1.0594456,1.0594456 0 0 0 -1.089844,-1.05859 z" />
    <path
       style="fill:url(#linearGradient948);fill-rule:evenodd;stroke:none;stroke-width:0.5;stroke-linecap:butt;stroke-linejoin:miter;stroke-opacity:0.95686275;fill-opacity:1;stroke-miterlimit:4;stroke-dasharray:none"
       d="M 21.166666,294.88332 31.75,275.83332 v -10.58333 l -10.583334,10.58333 z"
       id="path922"
       inkscape:connector-curvature="0" />
    <rect
       y="275.83331"
       x="1.0583333"
       height="20.108322"
       width="20.108334"
       id="rect851"
       style="opacity:1;fill:url(#linearGradient853);fill-opacity:1.0;stroke:none;stroke-width:0.55882353;stroke-linecap:square;stroke-linejoin:round;stroke-miterlimit:4;stroke-dasharray:none;stroke-dashoffset:0;stroke-opacity:0.95686275"
       ry="1.058341"
       rx="1.0583333" />
    <rect
       style="opacity:1;fill:url(#linearGradient932);fill-opacity:1;stroke:none;stroke-width:0.5;stroke-linecap:square;stroke-linejoin:round;stroke-miterlimit:4;stroke-dasharray:none;stroke-dashoffset:0;stroke-opacity:0.95686275"
       id="rect918"
       width="17.991667"
       height="17.991657"
       x="2.1166666"
       y="276.89166" />
    <path
       style="fill:#ffffff;fill-opacity:0.66911763;fill-rule:evenodd;stroke:none;stroke-width:1.88976383;stroke-linecap:butt;stroke-linejoin:miter;stroke-miterlimit:4;stroke-dasharray:none;stroke-opacity:0.95686275"
       d="M 53.919922 17.919922 L 46.171875 22.224609 L 46.171875 41 A 2.8287075 2.8287075 0 0 0 51 43 L 63 31 A 2.8287075 2.8287075 0 0 0 63 27 L 53.919922 17.919922 z M 41.876953 24.611328 L 23.046875 35.074219 C 23.428235 35.640874 23.860409 36.172909 24.34375 36.65625 C 26.348309 38.660809 29.165125 39.828125 32 39.828125 C 34.834875 39.828125 37.651691 38.660809 39.65625 36.65625 C 41.660809 34.651691 42.828125 31.834875 42.828125 29 C 42.828125 27.490471 42.489081 25.990707 41.876953 24.611328 z M 17.828125 37.972656 L 11.492188 41.492188 L 13 43 A 2.8287075 2.8287075 0 0 0 17.828125 41 L 17.828125 37.972656 z M 20 43.171875 A 2.8287075 2.8287075 0 0 0 18 48 L 30 60 A 2.8287075 2.8287075 0 0 0 34 60 L 46 48 A 2.8287075 2.8287075 0 0 0 44 43.171875 L 20 43.171875 z "
       transform="matrix(0.26458333,0,0,0.26458333,0,263.13332)"
       id="path1992" />
    <g
       id="g1008"
       transform="translate(-32.808332,1.6311739e-6)"
       style="fill:url(#linearGradient1930);fill-opacity:1">
      <g
         id="g999"
         style="fill:url(#linearGradient1930);fill-opacity:1.0">
        <path
           transform="matrix(0.80273047,0.03185404,-0.0459535,0.5564365,62.325563,114.97162)"
           style="opacity:1;fill:url(#linearGradient1930);fill-opacity:1.0;stroke:none;stroke-width:0.5;stroke-linecap:square;stroke-linejoin:round;stroke-miterlimit:4;stroke-dasharray:none;stroke-dashoffset:0;stroke-opacity:0.95686275"
           d="m -6.6769683,272.35702 -7.8846607,0.45137 3.616751,-5.91299 z"
           id="path982"
           inkscape:connector-curvature="0"
           sodipodi:nodetypes="cccc" />
        <path
           sodipodi:nodetypes="cccc"
           inkscape:connector-curvature="0"
           id="path985"
           d="m 44.449999,275.30423 h -6.35 l 3.174999,3.175 z"
           style="opacity:1;fill:url(#linearGradient1934);fill-opacity:1;stroke:none;stroke-width:0.33471343;stroke-linecap:square;stroke-linejoin:round;stroke-miterlimit:4;stroke-dasharray:none;stroke-dashoffset:0;stroke-opacity:0.95686275" />
      </g>
      <g
         transform="rotate(90,41.274999,270.80628)"
         id="g993"
         style="fill:url(#linearGradient1930);fill-opacity:1.0">
        <path
           sodipodi:nodetypes="cccc"
           inkscape:connector-curvature="0"
           id="path987"
           d="m -6.6769683,272.35702 -7.8846607,0.45137 3.616751,-5.91299 z"
           style="opacity:1;fill:url(#linearGradient1930);fill-opacity:1.0;stroke:none;stroke-width:0.5;stroke-linecap:square;stroke-linejoin:round;stroke-miterlimit:4;stroke-dasharray:none;stroke-dashoffset:0;stroke-opacity:0.95686275"
           transform="matrix(0.80273047,0.03185404,-0.0459535,0.5564365,62.325563,114.97162)" />
        <path
           style="opacity:1;fill:url(#linearGradient1936);fill-opacity:1;stroke:none;stroke-width:0.33471343;stroke-linecap:square;stroke-linejoin:round;stroke-miterlimit:4;stroke-dasharray:none;stroke-dashoffset:0;stroke-opacity:0.95686275"
           d="m 44.449999,275.30423 h -6.35 l 3.174999,3.175 z"
           id="path989"
           inkscape:connector-curvature="0"
           sodipodi:nodetypes="cccc" />
      </g>
      <circle
         r="2.1166666"
         cy="270.80627"
         cx="41.275002"
         id="path995"
         style="opacity:1;fill:url(#linearGradient1932);fill-opacity:1;stroke:none;stroke-width:0.5;stroke-linecap:square;stroke-linejoin:round;stroke-miterlimit:4;stroke-dasharray:none;stroke-dashoffset:0;stroke-opacity:0.95686275" />
    </g>
  </g>
</svg>
